!!!!SEGMENT: T623_Hin-w20p24m59-66.krn
!!!COM: Hindemith, Paul
!!!OTL: Clarinet Quintet, op. 30
!!!OMV: III: Schneller Ländler (Fast Ländler)
!!!OMD:
!!!AGN: Instrumental; Chamber
!!!AGN-sub: Chamber
!!!CNT: German
!!!ODT: 1923 (rev. 1954)
!!!OPR: Clarinet Quintet, op. 30
!!!filename: T623_Hin-w20p24m59-66.krn
**kern	**dynam	**kern	**dynam	**kern	**dynam	**kern	**dynam	**kern	**dynam
*grp:A	*	*grp:A	*	*grp:B	*	*grp:A	*	*grp:B	*
*part5	*	*part4	*	*part3	*	*part2	*	*part1	*
*staff5	*	*staff4	*	*staff3	*	*staff2	*	*staff1	*
*I"Violoncello	*	*I"Viola	*	*I"Violin II	*	*I"Violin I	*	*I"Clarinet in Eb	*
*I'vc	*	*I'vla	*	*I'vn	*	*I'vn	*	*I'cl	*
*ICstr	*	*ICstr	*	*ICstr	*	*ICstr	*	*ICww	*
*Icello	*	*Iviola	*	*Ivioln	*	*Ivioln	*	*Iclars	*
*clefF4	*	*clefC3	*	*clefG2	*	*clefG2	*	*clefG2	*
*	*	*	*	*	*	*	*	*ITrd-2c-3	*
*k[]	*	*k[]	*	*k[]	*	*k[]	*	*k[b-e-a-]	*
!!LO:TX:omd:tempo:a:t=[Schneller Ländler]\n[[half-dot]=66]
*M3/4	*	*M3/4	*	*M3/4	*	*M3/4	*	*M3/4	*
!!LO:REH:t=C
=1	=1	=1	=1	=1	=1	=1	=1	=1	=1
!	!	!	!	!	!	!	!	!LO:TX:t=[Schneller Ländler [half-dot]=66]	!
!	!LO:DY:ed=brack	!	!LO:DY:ed=brack	!	!LO:DY:ed=brack	!	!LO:DY:ed=brack	!	!
4CC^ 4C	ff	4C^ 4c	ff	4c^	ff	4c^	ff	8r	.
.	.	.	.	.	.	.	.	(8eeXL	pp
*	*	*	*	*	*	*^	*	*	*
*grp:A	*	*grp:A	*	*grp:B	*	*grp:B	*grp:A	*	*grp:B	*
!LO:TX:a:t=pizz.	!	!	!	!	!	!	!	!	!	!
4G	pp	4r	.	(8ffL	pp	(8aaL	2a	pp	8gg	.
!	!	!	!	!LO:TX:a:t=0	!	!	!	!	!	!
.	.	.	.	8eerJ 8eeeyy	.	8ff#X	.	.	8bb-	.
!	!	!LO:TX:a:t=pizz.	!	!	!	!	!	!	!	!
4F	.	4d	pp	12ffL	.	8gg#X	.	.	8ddd	.
.	.	.	.	12gg	.	.	.	.	.	.
.	.	.	.	.	.	8aaJ)	.	.	8ggJ	.
.	.	.	.	12ffJ	.	.	.	.	.	.
=2	=2	=2	=2	=2	=2	=2	=2	=2	=2	=2
4B-X	.	4C^	.	8aa-XL	.	(8ff#XL	4a	.	8bb-L	.
.	.	.	.	8bb-XJ	.	8eeJ)	.	.	8ddd	.
4G	.	4r	.	4ff)	.	((12aaL	4a	.	8gg	.
.	.	.	.	.	.	12gg#X	.	.	.	.
.	.	.	.	.	.	.	.	.	8bb-	.
.	.	.	.	.	.	12ff#J)	.	.	.	.
4F	.	4d	.	(12bb-L	.	(8ff#L	4a	.	8ddd	.
.	.	.	.	12aa-	.	.	.	.	.	.
.	.	.	.	.	.	8aaJ))	.	.	8ggJ)	.
.	.	.	.	12ggJ	.	.	.	.	.	.
=3	=3	=3	=3	=3	=3	=3	=3	=3	=3	=3
!	!	!	!	!LO:TX:a:t=0	!	!	!	!	!	!
4B-X	.	4C^	.	8eerL 8eeeyy	.	(12gg#XL	4a	.	(8ccc^L	.
.	.	.	.	.	.	12ff#X	.	.	.	.
.	.	.	.	8aa-XJ)	.	.	.	.	8bb-)	.
.	.	.	.	.	.	12eeJ)	.	.	.	.
4G	.	4r	.	(8aa-L	.	4ff#	4a	.	(8bb-^	.
!	!	!	!	!LO:TX:a:t=0	!	!	!	!	!	!
.	.	.	.	8eerJ) 8eeeyy	.	.	.	.	8aaX)	.
4F	.	4d	.	(8eeL	.	(12ccc#XvL	4a	.	(8aa^	.
.	.	.	.	.	.	12bb	.	.	.	.
.	.	.	.	8ffJ)	.	.	.	.	8ggJ)	.
.	.	.	.	.	.	12aaJ)	.	.	.	.
=4	=4	=4	=4	=4	=4	=4	=4	=4	=4	=4
4B-X	.	4C^	.	(8ffL	.	(8bbL	4a	.	(12ggL	.
.	.	.	.	.	.	.	.	.	12ff	.
.	.	.	.	8bb-XJ)	.	8ff#XJ)	.	.	.	.
.	.	.	.	.	.	.	.	.	12aaXJ	.
4G	.	4r	.	(12ffL	.	4aa	4a	.	8ggL	.
.	.	.	.	12gg	.	.	.	.	.	.
.	.	.	.	.	.	.	.	.	8ff	.
.	.	.	.	12aa-XJ	.	.	.	.	.	.
4F	.	4d	.	8bb-L	.	(12gg#XvL	4a	.	8ee-	.
.	.	.	.	.	.	12ff#	.	.	.	.
.	.	.	.	8aa-J)	.	.	.	.	8bb-J)	.
.	.	.	.	.	.	12eeJ)	.	.	.	.
=5	=5	=5	=5	=5	=5	=5	=5	=5	=5	=5
!	!	!	!	!LO:TX:a:t=0	!	!	!	!	!	!
4B-X	.	4C^	.	(8eerL 8eeeyy	.	(8ff#XL	4a	.	(12aaXL	.
.	.	.	.	.	.	.	.	.	12gg	.
.	.	.	.	8ggJ	.	8aaJ)	.	.	.	.
.	.	.	.	.	.	.	.	.	12ffJ	.
4G	.	4r	.	8bb-XL	.	4ee	4a	.	12ggL	.
.	.	.	.	.	.	.	.	.	12ff	.
.	.	.	.	8gg-XJ)	.	.	.	.	.	.
.	.	.	.	.	.	.	.	.	12ee-J)	.
4F	.	4d	.	(8ffL	.	(8aaL/	[4a	.	(8ggL	.
!	!	!	!	!LO:TX:a:t=0	!	!	!	!	!	!
.	.	.	.	8eerJ 8eeeyy	.	8ff#	.	.	8bb-J	.
=6	=6	=6	=6	=6	=6	=6	=6	=6	=6	=6
4B-X	.	4C^	.	12ffL	.	8gg#X	4a]	.	8dddL	.
.	.	.	.	12gg	.	.	.	.	.	.
.	.	.	.	.	.	8aaJ)	.	.	8gg	.
.	.	.	.	12ffJ	.	.	.	.	.	.
4G	.	4r	.	8aa-XL	.	((8ff#XL	4a	.	8bb-	.
.	.	.	.	8bb-XJ	.	8eeJ)	.	.	8ddd	.
*	*	*	*	*Xtuplet	*	*Xtuplet	*	*	*	*
4F	.	4d	.	4ff)	.	(12aaL	4a	.	8gg	.
.	.	.	.	.	.	12gg#	.	.	.	.
.	.	.	.	.	.	.	.	.	8bb-J	.
.	.	.	.	.	.	12ff#J))	.	.	.	.
=7	=7	=7	=7	=7	=7	=7	=7	=7	=7	=7
4B-X	.	4C^	.	(12bb-XL	.	(8ff#XL	4a	.	8dddL	.
.	.	.	.	12aa-X	.	.	.	.	.	.
.	.	.	.	.	.	8aaJ)	.	.	8ggJ)	.
.	.	.	.	12ffJ	.	.	.	.	.	.
*	*	*	*	*	*	*tuplet	*	*	*	*
4G	.	4r	.	8eeL	.	(12gg#XL	2a	.	(8ccc^L	.
.	.	.	.	.	.	12ff#	.	.	.	.
.	.	.	.	8aa-J)	.	.	.	.	8bb-)	.
.	.	.	.	.	.	12eeJ	.	.	.	.
4F	.	4d	.	(8aa-L	.	4ff#)	.	.	(8bb-^	.
.	.	.	.	8eeJ)	.	.	.	.	8aaXJ)	.
=8	=8	=8	=8	=8	=8	=8	=8	=8	=8	=8
*	*	*	*	*tuplet	*	*Xtuplet	*	*	*	*
4B-X	.	4C^	.	(8eeL	.	(12ccc#XL	4a	.	(8aaX^L	.
.	.	.	.	.	.	12bb	.	.	.	.
.	.	.	.	8ffJ)	.	.	.	.	8ggJ)	.
.	.	.	.	.	.	12aaJ)	.	.	.	.
4G	.	4r	.	(8ffL	.	(8bbL	2a	.	(12ggLi	.
.	.	.	.	.	.	.	.	.	12ff	.
.	.	.	.	8bb-XJ)	.	8ff#XJ	.	.	.	.
.	.	.	.	.	.	.	.	.	12aaJ	.
4F	.	4d	.	(12ffLi	.	4aa)	.	.	8ggL	.
.	.	.	.	12gg	.	.	.	.	.	.
.	.	.	.	.	.	.	.	.	8ffJ	.
.	.	.	.	12aa-XJ	.	.	.	.	.	.
*	*	*	*	*	*	*v	*v	*	*	*
=	=	=	=	=	=	=	=	=	=
*-	*-	*-	*-	*-	*-	*-	*-	*-	*-
!!!system-decoration: s1[(s2,s3,s4,s5)]
!!!RDF**kern: i = marked note, color="hotpink", text="extra("
!!!EED: Claudio de Freitas
!!!EEV: 2021/08/26
!!!EED2: Jason Lee
!!!EED3: Bryan Bell
!!!Suter_Work_ID: Hin-20
!!!Suter_Example_Number: 623
!!!Suter_Example_ID: Hin-20/24/59-66
!!!Premiere_Location: Salzburg,Austria
!!!Other_Tsigs: none
!!!Full_Unit_Duration: 5:40
!!!First_Publication_Year: 1935
!!!First_Public_Performance_Year: 1923
!!!Example_Total_Measures: 8
!!!Example_Timestamp_Duration: 8
!!!Example_Start_Tsig_Type: simple triple
!!!Example_Start_Tsig_Mean_Beat_Rate: 198
!!!Example_Start_Tsig_Beat_Rate: 198
!!!Example_Start_Tsig_Beat: quarter
!!!Example_Start_Tsig: 3/4
!!!Example_Start_Timestamp: 0:59
!!!Example_Start_Tempo_Expression: [Schneller Ländler]
!!!Example_Start_Notated_Beat_Rate: [66]
!!!Example_Start_Notated_Beat: [dotted-half]
!!!Example_Start_Measure: 59
!!!Example_Metadata_Validated: Y
!!!Example_End_Timestamp: 1:07
!!!Example_End_Measure: 66
!!!Example_Dataset: T
!!!Editorial_Comments: Example Start Notated Beat and Example Start Notated Beat Rate [dotted-half=66] based on most recent notated beat rate (SWFU, m. 1). Example Start Tempo Expression [Schneller Ländler] based on most recent notated tempo expression (SWFU, m. 1).
!!!Death_Place: Frankfurt,Germany
!!!Death_Date: 28-Dec-1963
!!!Changing_Tsig: no
!!!Birth_Place: Hanau,Germany
!!!Birth_Date: 16-Nov-1895
!!!Audio_Example_Quarter_Note_Tempo:
!!!Audio_Example_Duration:
!!!EEV3: 2023/06/08
